projects/flag-game/flags/Mali.svg

<svg viewBox="0 0 1000 667" xmlns="http://www.w3.org/2000/svg" xmlns:xlink="http://www.w3.org/1999/xlink"><clipPath id="a"><path d="m0 0h334v666.71875h-334zm0 0"/></clipPath><clipPath id="b"><path d="m333 0h334v666.71875h-334zm0 0"/></clipPath><clipPath id="c"><path d="m666 0h334v666.71875h-334zm0 0"/></clipPath><g clip-path="url(#a)"><path d="m0 0h333.332031v666.667969h-333.332031zm0 0" fill="#14b53a" fill-rule="evenodd"/></g><g clip-path="url(#b)"><path d="m333.332031 0h333.335938v666.667969h-333.335938zm0 0" fill="#fcd116" fill-rule="evenodd"/></g><g clip-path="url(#c)"><path d="m666.667969 0h333.332031v666.667969h-333.332031zm0 0" fill="#ce1126" fill-rule="evenodd"/></g></svg>

<?xml version="1.0" encoding="UTF-8"?>
<svg xmlns="http://www.w3.org/2000/svg" xmlns:xlink="http://www.w3.org/1999/xlink" viewBox="0 0 1000 667" version="1.1">
<defs>
<clipPath id="clip1">
  <path d="M 0 0 L 334 0 L 334 666.71875 L 0 666.71875 Z M 0 0 "/>
</clipPath>
<clipPath id="clip2">
  <path d="M 333 0 L 667 0 L 667 666.71875 L 333 666.71875 Z M 333 0 "/>
</clipPath>
<clipPath id="clip3">
  <path d="M 666 0 L 1000 0 L 1000 666.71875 L 666 666.71875 Z M 666 0 "/>
</clipPath>
</defs>
<g id="surface745">
<g clip-path="url(#clip1)" clip-rule="nonzero">
<path style=" stroke:none;fill-rule:evenodd;fill:rgb(7.843018%,70.979309%,22.744751%);fill-opacity:1;" d="M 0 0 L 333.332031 0 L 333.332031 666.667969 L 0 666.667969 Z M 0 0 "/>
</g>
<g clip-path="url(#clip2)" clip-rule="nonzero">
<path style=" stroke:none;fill-rule:evenodd;fill:rgb(98.822021%,81.959534%,8.627319%);fill-opacity:1;" d="M 333.332031 0 L 666.667969 0 L 666.667969 666.667969 L 333.332031 666.667969 Z M 333.332031 0 "/>
</g>
<g clip-path="url(#clip3)" clip-rule="nonzero">
<path style=" stroke:none;fill-rule:evenodd;fill:rgb(80.783081%,6.666565%,14.901733%);fill-opacity:1;" d="M 666.667969 0 L 1000 0 L 1000 666.667969 L 666.667969 666.667969 Z M 666.667969 0 "/>
</g>
</g>
</svg>
